X: 107103
Q: "Strathspey."
M: C
L: 1/16
K: A
uE2 |\
ue2 |\
(cBA2) e3A f3A e3A | FB3 B3A GB3 B3d |
(cBA2) e3A f3A e3A | (e2fg) a3c (B4 A2)e2 |\
(cBA) e3A f3A e3A | FB3 B3A GB3 B3c |\


